;FLAVOR:Marlin
;TIME:5599
;Filament used: 2.96488m
;Layer height: 0.2
;MINX:102.317
;MINY:77.034
;MINZ:0.2
;MAXX:132.586
;MAXY:154.608
;MAXZ:48.8
;TARGET_MACHINE.NAME:Creality Ender-3
;Generated with Cura_SteamEngine 5.6.0
M140 S70
M105
M190 S70
M104 S240
M105
M109 S240
M82 ;absolute extrusion mode
; Ender 3 Custom Start G-code
G92 E0 ; Reset Extruder
G28 ; Home all axes
G1 Z2.0 F3000 ; Move Z Axis up little to prevent scratching of Heat Bed
G1 X0.1 Y20 Z0.3 F5000.0 ; Move to start position
G1 X0.1 Y200.0 Z0.3 F1500.0 E15 ; Draw the first line
G1 X0.4 Y200.0 Z0.3 F5000.0 ; Move to side a little
G1 X0.4 Y20 Z0.3 F1500.0 E30 ; Draw the second line
G92 E0 ; Reset Extruder
G1 Z2.0 F3000 ; Move Z Axis up little to prevent scratching of Heat Bed
G1 X5 Y20 Z0.3 F5000.0 ; Move over to prevent blob squish
G92 E0
G92 E0
G1 F1500 E-6
;LAYER_COUNT:244
;LAYER:0
M107
;MESH:A.stl
G0 F6000 X103.882 Y78.604 Z0.2
;TYPE:WALL-INNER
G1 F1500 E0
G1 F1315.1 X104.172 Y79.436 E0.03369
G1 F1228.1 X104.348 Y80.005 E0.05808
G1 F1500 E-5.94192
G0 F6000 X104.42 Y80.498
G0 X106.523 Y86.55
G0 X113.748 Y106.08
G0 X114.633 Y108.044
G0 X115.354 Y109.083
G0 X115.839 Y109.526
G0 X116.611 Y109.815
G0 X117.215 Y109.886
G0 X117.935 Y109.885
G0 X118.573 Y109.781
G0 X119.21 Y109.484
G0 X119.907 Y108.773
G0 X120.582 Y107.628
G0 X121.705 Y104.91
G0 X128.008 Y87.795
G0 X130.58 Y80.528
G0 X130.688 Y79.891
G1 F1500 E0.05808
G1 F1254.9 X130.933 Y79.12 E0.0905
G1 F1330.3 X131.117 Y78.604 E0.11121
G1 F1500 E-5.88879
G0 F6000 X120.599 Y106.621
G0 X119.808 Y108.21
G0 X119.359 Y108.804
G0 X117.879 Y110.087
G0 X114.218 Y107.681
G0 X104.397 Y81.901
G0 X103.348 Y83.817
G0 X113.191 Y110.892
G0 X113.953 Y112.397
G0 X114.516 Y113.12
G0 X114.951 Y113.435
G0 X116.554 Y113.637
G1 F1500 E0.11121
G1 F1200 X117.03 Y113.648 E0.13117
G1 X118.008 Y113.648 E0.17215
G1 X118.445 Y113.637 E0.19047
G1 X118.863 Y113.607 E0.20803
G1 X119.251 Y113.549 E0.22447
G1 X119.587 Y113.467 E0.23897
G1 X119.871 Y113.355 E0.25176
G1 X120.129 Y113.207 E0.26423
G1 X120.377 Y113.003 E0.27768
G1 X120.637 Y112.708 E0.29416
G1 X120.913 Y112.311 E0.31443
G1 X121.182 Y111.847 E0.3369
G1 X121.437 Y111.34 E0.36069
G1 X121.676 Y110.8 E0.38543
G1 X121.874 Y110.312 E0.4075
G1 X122.065 Y109.805 E0.43021
G1 X130.842 Y85.554 E1.51103
G1 X131.319 Y84.338 E1.56577
G1 X131.511 Y83.817 E1.58904
G1 X130.59 Y81.634 E1.68833
G1 X129.038 Y86.042 E1.88418
G1 X128.933 Y86.306 E1.89608
G1 X128.843 Y86.598 E1.90889
G1 X126.843 Y92.092 E2.15391
G1 X126.684 Y92.48 E2.17148
G1 X126.526 Y92.948 E2.19218
G1 X122.346 Y104.238 E2.69671
G1 X122.128 Y104.771 E2.72084
G1 X122.045 Y105.038 E2.73256
G1 X121.631 Y106.108 E2.78064
G1 X121.289 Y106.945 E2.81853
G1 X120.89 Y107.819 E2.8588
G1 X120.677 Y108.235 E2.87838
G1 X120.475 Y108.579 E2.8951
G1 X120.228 Y108.945 E2.91361
G1 X119.911 Y109.334 E2.93464
G1 X119.392 Y109.798 E2.96381
G1 X118.665 Y110.13 E2.9973
G1 X117.967 Y110.247 E3.02696
G1 X117.163 Y110.244 E3.06066
G1 X116.575 Y110.189 E3.08541
G1 X115.774 Y109.89 E3.12124
G1 X115.549 Y109.748 E3.13239
G1 X115.09 Y109.332 E3.15835
G1 X114.771 Y108.943 E3.17943
G1 X114.571 Y108.65 E3.1943
G1 X114.325 Y108.234 E3.21455
G1 X114.082 Y107.765 E3.23669
G1 X113.692 Y106.902 E3.27638
G1 X113.382 Y106.141 E3.31081
G1 X112.956 Y105.037 E3.3604
G1 X112.876 Y104.789 E3.37132
G1 X112.808 Y104.635 E3.37838
G1 X108.467 Y92.928 E3.90164
G1 X108.319 Y92.49 E3.92101
G1 X108.001 Y91.67 E3.95787
G1 X106.17 Y86.634 E4.18243
G1 X106.056 Y86.273 E4.1983
G1 X105.812 Y85.633 E4.227
G1 X104.408 Y81.628 E4.40486
G1 X103.49 Y83.817 E4.50433
G1 X103.685 Y84.351 E4.52816
G1 X104.102 Y85.4 E4.57547
G1 X112.965 Y109.88 E5.66654
G1 X113.166 Y110.408 E5.69021
G1 X113.34 Y110.834 E5.7095
G1 X113.577 Y111.37 E5.73406
G1 X113.817 Y111.849 E5.75651
G1 X114.087 Y112.312 E5.77897
G1 X114.357 Y112.703 E5.79888
G1 X114.627 Y113.007 E5.81592
G1 X114.866 Y113.204 E5.8289
G1 X115.131 Y113.354 E5.84166
G1 X115.416 Y113.466 E5.8545
G1 X115.749 Y113.55 E5.86889
G1 X116.137 Y113.608 E5.88533
G1 X116.554 Y113.637 E5.90285
G0 F6000 X116.531 Y114.117
G1 F1200 X117.03 Y114.128 E5.92377
G1 X118.019 Y114.128 E5.96521
G1 X118.468 Y114.116 E5.98404
G1 X118.915 Y114.084 E6.00282
G1 X119.344 Y114.021 E6.02099
G1 X119.733 Y113.925 E6.03778
G1 X120.079 Y113.789 E6.05336
G1 X120.402 Y113.603 E6.06898
G1 X120.711 Y113.35 E6.08572
G1 X121.016 Y113.005 E6.10501
G1 X121.318 Y112.569 E6.12724
G1 X121.605 Y112.075 E6.15118
G1 X121.871 Y111.545 E6.17603
G1 X122.111 Y111.005 E6.2008
G1 X122.321 Y110.487 E6.22422
G1 X122.516 Y109.968 E6.24746
G1 X131.289 Y85.729 E7.32775
G1 X131.769 Y84.504 E7.38289
G1 X132.028 Y83.807 E7.41405
G1 X130.771 Y80.832 E7.54939
G1 X130.659 Y80.4 E7.5681
G1 F1197.5 X130.675 Y79.928 E7.58793
G1 X129.816 Y82.399 E7.69779
G1 F1200 X128.591 Y85.865 E7.85185
G1 X128.48 Y86.146 E7.86451
G1 X128.373 Y86.487 E7.87949
G1 X126.38 Y91.956 E8.12343
G1 X126.234 Y92.312 E8.13955
G1 X126.076 Y92.781 E8.16029
G1 X121.887 Y104.093 E8.66581
G1 X121.677 Y104.607 E8.68908
G1 X121.593 Y104.874 E8.70081
G1 X121.187 Y105.926 E8.74807
G1 X120.851 Y106.747 E8.78524
G1 X120.464 Y107.599 E8.82446
G1 X120.26 Y107.995 E8.84313
G1 X120.031 Y108.381 E8.86194
G1 X119.788 Y108.731 E8.87979
G1 X119.531 Y109.029 E8.89628
G1 X119.13 Y109.392 E8.91895
G1 X118.528 Y109.667 E8.94669
G1 X117.887 Y109.767 E8.97388
G1 X117.175 Y109.763 E9.00372
G1 X116.671 Y109.709 E9.02496
G1 X115.897 Y109.419 E9.0596
G1 X115.409 Y108.965 E9.08753
G1 X115.167 Y108.672 E9.10345
G1 X114.941 Y108.337 E9.12039
G1 X114.728 Y107.969 E9.13821
G1 X114.519 Y107.567 E9.1572
G1 X114.137 Y106.72 E9.19614
G1 X113.83 Y105.968 E9.23018
G1 X113.258 Y104.468 E9.29745
G1 X108.922 Y92.775 E9.82009
G1 X108.767 Y92.314 E9.84047
G1 X108.706 Y92.176 E9.84679
G1 X108.453 Y91.506 E9.8768
G1 X106.628 Y86.49 E10.1005
G1 X106.521 Y86.149 E10.11547
G1 X106.265 Y85.474 E10.14573
G1 F1192.5 X104.362 Y80.044 E10.38836
G1 F1190.1 X104.308 Y80.629 E10.41319
G1 F1195 X102.973 Y83.809 E10.55832
G1 F1200 X103.238 Y84.527 E10.5904
G1 X103.663 Y85.597 E10.63865
G1 X112.681 Y110.488 E11.74812
G1 X112.9 Y111.027 E11.77251
G1 X113.129 Y111.546 E11.79628
G1 X113.395 Y112.077 E11.82117
G1 X113.681 Y112.57 E11.84505
G1 X113.979 Y113 E11.86698
G1 X114.293 Y113.354 E11.88681
G1 X114.593 Y113.6 E11.90307
G1 X114.922 Y113.788 E11.91895
G1 X115.269 Y113.924 E11.93457
G1 X115.655 Y114.021 E11.95125
G1 X116.085 Y114.085 E11.96946
G1 X116.531 Y114.117 E11.9882
G0 F6000 X116.508 Y114.597
;TYPE:WALL-OUTER
G1 F1200 X117.03 Y114.608 E12.01008
G1 X118.031 Y114.608 E12.05203
G1 X118.491 Y114.596 E12.07132
G1 X118.967 Y114.562 E12.09132
G1 X119.437 Y114.493 E12.11123
G1 X119.879 Y114.383 E12.13031
G1 X120.288 Y114.223 E12.14872
G1 X120.676 Y113.999 E12.16749
G1 X121.045 Y113.697 E12.18748
G1 X121.394 Y113.301 E12.2096
G1 X121.724 Y112.827 E12.2338
G1 X122.027 Y112.303 E12.25917
G1 X122.305 Y111.75 E12.28511
G1 X122.553 Y111.193 E12.31066
G1 X122.768 Y110.662 E12.33467
G1 X122.968 Y110.132 E12.35841
G1 X131.736 Y85.905 E13.43815
G1 X132.214 Y84.687 E13.49299
G1 X132.414 Y84.147 E13.51712
G1 X132.497 Y83.875 E13.52904
G1 X132.493 Y83.675 E13.53742
G1 X131.2 Y80.605 E13.67702
G1 X131.142 Y80.315 E13.68942
G1 F1202.5 X131.15 Y80.035 E13.70113
G1 X131.262 Y79.6 E13.71992
G1 F1200 X131.372 Y79.246 E13.73545
G1 X131.581 Y78.659 E13.76156
G1 X131.552 Y78.379 E13.77336
G1 X131.24 Y77.678 E13.80552
G1 X131.114 Y77.32 E13.82142
G1 X130.675 Y78.488 E13.87371
G1 X130.37 Y79.341 E13.91168
G1 X129.363 Y82.239 E14.04025
G1 X128.145 Y85.689 E14.19358
G1 X128.027 Y85.986 E14.20697
G1 X127.922 Y86.323 E14.22176
G1 X125.936 Y91.773 E14.46485
G1 X125.784 Y92.144 E14.48165
G1 X125.626 Y92.614 E14.50243
G1 X121.442 Y103.912 E15.00733
G1 X121.225 Y104.443 E15.03137
G1 X121.139 Y104.715 E15.04333
G1 X120.743 Y105.744 E15.08953
G1 X120.413 Y106.549 E15.12599
G1 X120.038 Y107.378 E15.16412
G1 X119.841 Y107.757 E15.18202
G1 X119.635 Y108.111 E15.19919
G1 X119.435 Y108.404 E15.21405
G1 X119.206 Y108.675 E15.22892
G1 X118.884 Y108.969 E15.2472
G1 X118.402 Y109.199 E15.26958
G1 X117.899 Y109.285 E15.29096
G1 X117.23 Y109.286 E15.319
G1 X116.755 Y109.231 E15.33904
G1 X116.152 Y109.005 E15.36603
G1 X115.776 Y108.655 E15.38755
G1 X115.564 Y108.402 E15.40139
G1 X115.356 Y108.095 E15.41693
G1 X115.158 Y107.756 E15.43338
G1 X114.957 Y107.369 E15.45165
G1 X114.581 Y106.538 E15.48988
G1 X114.278 Y105.795 E15.52351
G1 X113.856 Y104.702 E15.57261
G1 X113.772 Y104.439 E15.58418
G1 X113.708 Y104.301 E15.59055
G1 X109.377 Y92.622 E16.11256
G1 X109.214 Y92.138 E16.13397
G1 X109.155 Y92.006 E16.14002
G1 X108.904 Y91.342 E16.16977
G1 X107.086 Y86.345 E16.39262
G1 X106.963 Y85.957 E16.40967
G1 X106.718 Y85.314 E16.43851
G1 X105.715 Y82.468 E16.56497
G1 X104.724 Y79.605 E16.69194
G1 X104.364 Y78.595 E16.73687
G1 X103.885 Y77.322 E16.79387
G1 X103.677 Y77.875 E16.81863
G1 X103.444 Y78.392 E16.8424
G1 X103.422 Y78.664 E16.85383
G1 X103.725 Y79.556 E16.89331
G1 X103.867 Y80.083 E16.91618
G1 X103.839 Y80.506 E16.93395
G1 X102.507 Y83.677 E17.07809
G1 X102.505 Y83.88 E17.0866
G1 X102.59 Y84.157 E17.09874
G1 X102.792 Y84.704 E17.12318
G1 X103.211 Y85.761 E17.17082
G1 X112.066 Y110.218 E18.26087
G1 X112.236 Y110.668 E18.28103
G1 X112.461 Y111.221 E18.30605
G1 X112.672 Y111.701 E18.32803
G1 X112.972 Y112.305 E18.35629
G1 X113.275 Y112.828 E18.38162
G1 X113.601 Y113.298 E18.40559
G1 X113.96 Y113.702 E18.42824
G1 X114.32 Y113.996 E18.44772
G1 X114.713 Y114.222 E18.46672
G1 X115.122 Y114.382 E18.48512
G1 X115.561 Y114.493 E18.5041
G1 X116.033 Y114.563 E18.5241
G1 X116.508 Y114.597 E18.54405
G0 F6000 X116.532 Y113.938
G0 X116.167 Y113.469
G0 X116.187 Y113.17
;TYPE:SKIN
G1 F1200 X115.803 Y113.108 E18.56035
G1 X115.548 Y113.044 E18.57137
G1 X115.034 Y112.802 E18.59518
G1 X114.701 Y112.427 E18.6162
G1 X114.46 Y112.074 E18.63411
G1 X114.205 Y111.636 E18.65535
G1 X113.971 Y111.171 E18.67717
G1 X113.748 Y110.668 E18.70022
G1 X113.55 Y110.185 E18.7221
G1 X113.141 Y109.057 E18.77238
G1 F968.1 X113.113 Y108.642 E18.79399
G1 F848.3 X112.612 Y107.352 E18.87603
G1 F911.4 X111.883 Y105.382 E18.99194
G1 F941.2 X110.781 Y102.358 E19.16391
G1 F960 X109.679 Y99.334 E19.33251
G1 F979.6 X108.577 Y96.309 E19.49779
G1 F1000 X107.475 Y93.285 E19.65965
G1 F1012.3 X104.552 Y85.219 E20.08585
G1 F993.1 X104.022 Y83.831 E20.16109
G1 F971.3 X104.365 Y83.014 E20.20696
G1 F996.5 X105.372 Y85.834 E20.35807
G1 F1017.7 X105.589 Y86.41 E20.38849
G1 F1019.5 X105.699 Y86.747 E20.40598
G1 F1017.7 X108.008 Y93.083 E20.73922
G1 F1000 X109.121 Y96.103 E20.90108
G1 F979.6 X110.234 Y99.123 E21.06631
G1 F960 X111.348 Y102.144 E21.23498
G1 F941.2 X112.461 Y105.164 E21.40696
G1 F923.1 X112.925 Y106.389 E21.47832
G1 F901.4 X113.207 Y107.1 E21.521
G1 F867.5 X113.584 Y107.984 E21.57671
G1 F827.6 X113.763 Y108.358 E21.60191
G1 F968.1 X114.049 Y108.633 E21.62252
G1 F1200 X114.145 Y108.799 E21.63055
G1 X114.414 Y109.202 E21.65086
G1 X114.752 Y109.617 E21.67329
G1 X115.299 Y110.11 E21.70415
G1 X115.608 Y110.301 E21.71937
G1 X116.478 Y110.619 E21.75819
G1 X117.129 Y110.682 E21.7856
G1 X117.992 Y110.688 E21.82177
G1 X118.709 Y110.57 E21.85222
G1 X119.015 Y110.459 E21.86586
G1 X119.441 Y110.261 E21.88555
G1 X119.729 Y110.086 E21.89967
G1 X120.23 Y109.634 E21.92795
G1 X120.496 Y109.32 E21.9452
G1 X120.848 Y108.812 E21.9711
G1 X120.976 Y108.595 E21.98165
G1 F968.1 X121.257 Y108.323 E22.00197
G1 F820.5 X121.377 Y108.07 E22.01913
G1 F857.1 X121.769 Y107.162 E22.07716
G1 F897.2 X122.122 Y106.276 E22.13062
G1 F918.7 X122.527 Y105.209 E22.19309
G1 F923.1 X122.61 Y104.948 E22.20801
G1 F929 X122.814 Y104.438 E22.23775
G1 F948.9 X124.202 Y100.665 E22.4508
G1 F971.3 X125.591 Y96.891 E22.65901
G1 F996.5 X126.98 Y93.117 E22.86195
G1 F1005.2 X127.135 Y92.671 E22.88557
G1 F1007 X127.276 Y92.317 E22.9046
G1 F1017.7 X129.288 Y86.786 E23.19544
G1 X129.388 Y86.481 E23.2113
G1 F989.7 X130.633 Y83.012 E23.39858
G1 F968.1 X130.977 Y83.829 E23.44463
G1 F989.7 X130.391 Y85.377 E23.52874
G1 F1012.3 X127.813 Y92.501 E23.90511
G1 F1003.5 X126.638 Y95.73 E24.07731
G1 F979.6 X125.462 Y98.96 E24.25378
G1 F958.4 X124.287 Y102.19 E24.43413
G1 F936.6 X123.111 Y105.42 E24.6187
G1 F904.2 X122.381 Y107.385 E24.73528
G1 F845.8 X121.907 Y108.607 E24.81321
G1 F968.1 X121.88 Y109.021 E24.83476
G1 F1200 X121.654 Y109.646 E24.86261
G1 X121.27 Y110.629 E24.90684
G1 X121.047 Y111.131 E24.92986
G1 X120.795 Y111.634 E24.95344
G1 X120.542 Y112.071 E24.9746
G1 X120.293 Y112.432 E24.99298
G1 X119.99 Y112.776 E25.01219
G1 X119.588 Y113.01 E25.03168
G1 X119.17 Y113.115 E25.04974
G1 X118.81 Y113.169 E25.065
G1 X118.422 Y113.197 E25.0813
G1 X118.014 Y113.208 E25.09841
G1 X117.049 Y113.208 E25.13885
G1 X116.578 Y113.197 E25.15859
G1 X116.187 Y113.17 E25.17502
G0 F6000 X115.47 Y112.755
G1 F1200 X114.665 Y111.949 E25.22275
G0 F6000 X114.219 Y112.255
G0 X113.475 Y110.793
G0 X113.97 Y110.575
G1 F1200 X116.332 Y112.938 E25.36277
G0 F6000 X117.04 Y112.967
G1 F1200 X113.546 Y109.473 E25.56985
G0 F6000 X113.42 Y108.668
G1 F1200 X117.719 Y112.968 E25.82467
G0 F6000 X118.388 Y112.957
G1 F1200 X116.209 Y110.778 E25.95381
G0 F6000 X117.023 Y110.913
G1 F1200 X119.005 Y112.895 E26.07127
G0 F6000 X119.544 Y112.755
G1 F1200 X117.714 Y110.926 E26.1797
G0 F6000 X118.339 Y110.872
G1 F1200 X119.938 Y112.471 E26.27447
G0 F6000 X120.236 Y112.09
G1 F1200 X118.901 Y110.755 E26.35359
G0 F6000 X119.378 Y110.554
G1 F1200 X120.495 Y111.671 E26.41979
G0 F6000 X120.73 Y111.227
G1 F1200 X119.818 Y110.315 E26.47384
G0 F6000 X120.182 Y110
G1 F1200 X120.947 Y110.764 E26.51915
G0 F6000 X121.145 Y110.284
G1 F1200 X120.52 Y109.659 E26.55619
G0 F6000 X120.817 Y109.277
G1 F1200 X121.337 Y109.797 E26.58701
G0 F6000 X121.521 Y109.303
G1 F1200 X121.09 Y108.871 E26.61258
G0 F6000 X121.459 Y108.562
G1 F1200 X121.613 Y108.715 E26.62168
G0 F6000 X122.287 Y108.959
G1 F1500 E20.62168
;MESH:A.stl(1)
G0 F6000 X121.874 Y112.212
G0 X122.812 Y112.755
G0 X123.511 Y120.665
G0 X122.689 Y121.555
G0 X131.187 Y147.815
G0 X130.487 Y150.008
;TYPE:WALL-INNER
G1 F1500 E26.62168
G1 F1200 X131.405 Y147.823 E26.721
G1 X131.211 Y147.286 E26.74493
G1 X130.787 Y146.219 E26.79305
G1 X121.934 Y121.766 E27.88291
G1 X121.551 Y120.794 E27.92669
G1 X121.316 Y120.267 E27.95088
G1 X121.078 Y119.791 E27.97318
G1 X120.804 Y119.321 E27.99598
G1 X120.538 Y118.938 E28.01552
G1 X120.266 Y118.633 E28.03265
G1 X120.027 Y118.438 E28.04557
G1 X119.764 Y118.286 E28.0583
G1 X119.48 Y118.175 E28.07108
G1 X119.147 Y118.091 E28.08547
G1 X118.759 Y118.034 E28.10191
G1 X118.341 Y118.004 E28.11947
G1 X117.866 Y117.993 E28.13938
G1 X116.888 Y117.993 E28.18037
G1 X116.411 Y118.007 E28.20037
G1 X116.033 Y118.034 E28.21625
G1 X115.644 Y118.092 E28.23273
G1 X115.309 Y118.175 E28.2472
G1 X115.027 Y118.285 E28.25988
G1 X114.764 Y118.436 E28.27259
G1 X114.523 Y118.632 E28.28561
G1 X114.259 Y118.932 E28.30235
G1 X113.983 Y119.329 E28.32262
G1 X113.713 Y119.795 E28.34519
G1 X113.459 Y120.301 E28.36892
G1 X113.22 Y120.841 E28.39366
G1 X113.016 Y121.343 E28.41637
G1 X112.831 Y121.833 E28.43832
G1 X104.007 Y146.214 E29.52493
G1 X103.575 Y147.307 E29.57419
G1 X103.386 Y147.826 E29.59733
G1 X104.309 Y150.012 E29.69678
G1 X105.775 Y145.818 E29.88297
G1 X105.946 Y145.382 E29.90259
G1 X106.068 Y145 E29.9194
G1 X108.06 Y139.531 E30.16332
G1 X108.213 Y139.16 E30.18014
G1 X108.372 Y138.689 E30.20097
G1 X112.565 Y127.368 E30.70691
G1 X112.755 Y126.898 E30.72815
G1 X112.803 Y126.744 E30.73491
G1 X113.264 Y125.535 E30.78914
G1 X113.607 Y124.694 E30.8272
G1 X113.998 Y123.834 E30.86679
G1 X114.224 Y123.403 E30.88718
